X: 8572
T: Crock Of Gold, The
R: reel
M: 4/4
K: Gmajor
|:B3B BAGE|G3A GEDB,|DEGA BAGA|Bded BAAc|
BedB BAGE|G3A GEDf|gbfg egdB|1 DEGB BAGA:|2 DEGB BAA2||
|:eaag gaea|a2ga bage|gedB GABd|egdB BAAg|
eaag ageg|a2ga bage|g2fg egdB|1 DEGA BGG2:|2 DEGc BGG2||

